usr/share/icons/biglinux-icons-material/scalable/apps/help-browser.svg

<svg xmlns="http://www.w3.org/2000/svg" xml:space="preserve" width="24" height="24" viewBox="0 0 6.35 6.35"><defs><radialGradient id="a" cx="0" cy="0" r="1" fx="0" fy="0" gradientTransform="scale(-18.44752) rotate(-63.435 -.389 .555)" gradientUnits="userSpaceOnUse" spreadMethod="pad"><stop offset="0" style="stop-opacity:1;stop-color:#c00111"/><stop offset="1" style="stop-opacity:1;stop-color:#7b0619"/></radialGradient></defs><path d="M5.699.75h6.602a4.938 4.938 0 0 1 4.949 4.949v6.602a4.938 4.938 0 0 1-4.949 4.949H5.699A4.938 4.938 0 0 1 .75 12.301V5.699A4.938 4.938 0 0 1 5.699.75Z" style="fill:url(#a);stroke:none" transform="scale(.35277)"/><path d="M8.961 3.75A5.251 5.251 0 0 0 3.75 9 5.252 5.252 0 0 0 9 14.25 5.252 5.252 0 0 0 14.25 9 5.252 5.252 0 0 0 9 3.75h-.039zm.035 2.102H9c.836 0 1.637.332 2.227.921a3.153 3.153 0 0 1 0 4.454 3.153 3.153 0 0 1-4.454 0A3.153 3.153 0 0 1 5.852 9c0-.836.328-1.637.918-2.227a3.156 3.156 0 0 1 2.226-.921Z" style="fill:#ff6e65;fill-opacity:1;fill-rule:nonzero;stroke:none" transform="scale(.35277)"/><path d="M4.23 6.824A5.285 5.285 0 0 0 3.75 9c0 .777.176 1.512.48 2.176l1.84-1.051a3.011 3.011 0 0 1 0-2.25m7.7-1.051-1.84 1.051c.136.348.218.727.218 1.125s-.082.777-.214 1.125l1.836 1.051c.304-.664.48-1.399.48-2.176 0-.777-.176-1.516-.48-2.176Zm-5.895 5.11L6.824 13.77c.664.304 1.399.48 2.176.48.777 0 1.516-.176 2.176-.48l-1.051-1.84A3.086 3.086 0 0 1 9 12.148a3.17 3.17 0 0 1-1.125-.214ZM9 3.75c-.777 0-1.512.176-2.176.48l1.051 1.84A3.086 3.086 0 0 1 9 5.852c.398 0 .777.082 1.125.214l1.051-1.836A5.161 5.161 0 0 0 9 3.75Z" style="fill:#fff;fill-opacity:1;fill-rule:nonzero;stroke:none" transform="scale(.35277)"/></svg>

<?xml version="1.0" encoding="UTF-8" standalone="no"?>
<svg
   width="24"
   height="24"
   viewBox="0 0 6.349875 6.349875"
   version="1.1"
   id="svg43304"
   sodipodi:docname="wine-help.svg"
   xml:space="preserve"
   inkscape:version="1.2.2 (b0a8486541, 2022-12-01)"
   inkscape:export-filename="wine-help.pdf"
   inkscape:export-xdpi="96"
   inkscape:export-ydpi="96"
   xmlns:inkscape="http://www.inkscape.org/namespaces/inkscape"
   xmlns:sodipodi="http://sodipodi.sourceforge.net/DTD/sodipodi-0.dtd"
   xmlns="http://www.w3.org/2000/svg"
   xmlns:svg="http://www.w3.org/2000/svg"><defs
     id="defs43308"><radialGradient
       id="paint0_radial_3_1372"
       cx="0"
       cy="0"
       r="1"
       gradientUnits="userSpaceOnUse"
       gradientTransform="matrix(-2.9103485,5.8207099,-5.8207099,-2.9103485,4.6301171,0.26457812)"><stop
         stop-color="#82C6E5"
         id="stop43433"
         offset="0"
         style="stop-color:#c00111;stop-opacity:1;" /><stop
         offset="1"
         stop-color="#3997C2"
         id="stop43435"
         style="stop-color:#7b0619;stop-opacity:1;" /></radialGradient><radialGradient
       id="paint0_radial_2_194"
       cx="0"
       cy="0"
       r="1"
       gradientUnits="userSpaceOnUse"
       gradientTransform="matrix(0,22,-22,0,12,1.00005)"><stop
         stop-color="white"
         id="stop43458" /><stop
         offset="1"
         stop-color="#BEBEBE"
         id="stop43460" /></radialGradient><radialGradient
       id="paint1_radial_2_194"
       cx="0"
       cy="0"
       r="1"
       gradientUnits="userSpaceOnUse"
       gradientTransform="matrix(0,11,-11,0,12,0.999998)"><stop
         stop-color="#C50110"
         id="stop43463" /><stop
         offset="1"
         stop-color="#7B0619"
         id="stop43465" /></radialGradient><radialGradient
       id="paint2_radial_2_194"
       cx="0"
       cy="0"
       r="1"
       gradientUnits="userSpaceOnUse"
       gradientTransform="matrix(0,22,-20.5309,0,11.4992,1)"><stop
         stop-color="#6DD4FF"
         id="stop43468" /><stop
         offset="1"
         stop-color="#0076D4"
         id="stop43470" /></radialGradient><radialGradient
       fx="0"
       fy="0"
       cx="0"
       cy="0"
       r="1"
       gradientUnits="userSpaceOnUse"
       gradientTransform="matrix(-8.249969,16.499975,-16.499975,-8.249969,13.125,0.75)"
       spreadMethod="pad"
       id="radialGradient45186"><stop
         style="stop-opacity:1;stop-color:#c00111"
         offset="0"
         id="stop45182" /><stop
         style="stop-opacity:1;stop-color:#7b0619"
         offset="1"
         id="stop45184" /></radialGradient><radialGradient
       fx="0"
       fy="0"
       cx="0"
       cy="0"
       r="1"
       gradientUnits="userSpaceOnUse"
       gradientTransform="matrix(-8.249969,16.499975,-16.499975,-8.249969,13.125,0.75)"
       spreadMethod="pad"
       id="radialGradient45186-1"><stop
         style="stop-opacity:1;stop-color:#c00111"
         offset="0"
         id="stop45182-7" /><stop
         style="stop-opacity:1;stop-color:#7b0619"
         offset="1"
         id="stop45184-2" /></radialGradient></defs><sodipodi:namedview
     id="namedview43306"
     pagecolor="#ffffff"
     bordercolor="#000000"
     borderopacity="0.25"
     inkscape:showpageshadow="2"
     inkscape:pageopacity="0.0"
     inkscape:pagecheckerboard="0"
     inkscape:deskcolor="#d1d1d1"
     showgrid="false"
     inkscape:zoom="9.3691649"
     inkscape:cx="18.891759"
     inkscape:cy="30.899232"
     inkscape:window-width="2560"
     inkscape:window-height="1000"
     inkscape:window-x="1680"
     inkscape:window-y="0"
     inkscape:window-maximized="1"
     inkscape:current-layer="svg43304" /><g
     id="g45170"
     transform="scale(0.35277082)"><g
       id="g45172"><g
         id="g45174"><g
           id="g45180"><path
             d="m 5.699,0.75 h 6.602 c 2.742,0 4.949,2.207 4.949,4.949 v 6.602 c 0,2.742 -2.207,4.949 -4.949,4.949 H 5.699 C 2.957,17.25 0.75,15.043 0.75,12.301 V 5.699 C 0.75,2.957 2.957,0.75 5.699,0.75 Z"
             style="fill:url(#radialGradient45186-1);stroke:none"
             id="path45188" /></g></g></g><path
       d="M 8.961,3.75 C 7.574,3.762 6.25,4.316 5.273,5.301 4.297,6.285 3.75,7.613 3.75,9 c 0,1.391 0.555,2.727 1.539,3.711 0.984,0.984 2.32,1.539 3.711,1.539 1.391,0 2.727,-0.555 3.711,-1.539 C 13.695,11.727 14.25,10.391 14.25,9 14.25,7.609 13.695,6.273 12.711,5.289 11.727,4.305 10.391,3.75 9,3.75 c -0.012,0 -0.027,0 -0.039,0 z m 0.035,2.102 c 0,0 0.004,0 0.004,0 0.836,0 1.637,0.332 2.227,0.921 0.589,0.59 0.921,1.391 0.921,2.227 0,0.836 -0.332,1.637 -0.921,2.227 C 10.637,11.816 9.836,12.148 9,12.148 8.164,12.148 7.363,11.816 6.773,11.227 6.184,10.637 5.852,9.836 5.852,9 5.852,8.164 6.18,7.363 6.77,6.773 7.363,6.184 8.16,5.852 8.996,5.852 Z"
       style="fill:#ff6e65;fill-opacity:1;fill-rule:nonzero;stroke:none"
       id="path45190" /><path
       d="M 4.23,6.824 C 3.918,7.504 3.754,8.246 3.75,9 c 0,0.777 0.176,1.512 0.48,2.176 L 6.07,10.125 C 5.926,9.766 5.852,9.387 5.852,9 5.852,8.602 5.934,8.223 6.07,7.875 m 7.7,-1.051 -1.84,1.051 c 0.136,0.348 0.218,0.727 0.218,1.125 0,0.398 -0.082,0.777 -0.214,1.125 l 1.836,1.051 C 14.074,10.512 14.25,9.777 14.25,9 14.25,8.223 14.074,7.484 13.77,6.824 Z m -5.895,5.11 -1.051,1.836 c 0.664,0.304 1.399,0.48 2.176,0.48 0.777,0 1.516,-0.176 2.176,-0.48 L 10.125,11.93 C 9.777,12.066 9.398,12.148 9,12.148 8.602,12.148 8.223,12.066 7.875,11.934 Z M 9,3.75 C 8.223,3.75 7.488,3.926 6.824,4.23 L 7.875,6.07 C 8.223,5.934 8.602,5.852 9,5.852 c 0.398,0 0.777,0.082 1.125,0.214 L 11.176,4.23 C 10.496,3.914 9.754,3.75 9,3.75 Z"
       style="fill:#ffffff;fill-opacity:1;fill-rule:nonzero;stroke:none"
       id="path45192" /></g></svg>
